X:1
T:Title
%%score { ( 1 4 ) | ( 2 3 ) }
L:1/8
Q:1/4=81
M:6/8
K:D
V:1 treble nm="Grand Piano"
V:4 treble 
V:2 bass 
V:3 bass 
V:1
 FFF FFD | [FA][FA][FA] [FA]2 [DF] | [Fd][Fd][Ad] edB | [GB][FA][DF] [CE]3 | FFF FFD | %5
w: Charles~H.~Gabriel * * * * *|||||
 [FA][FA][FA] [FA]2 [DF] | [Fd][Fd][Ad] edB | AB[EGc] [DFd]3 | [Ge]ee edc | [Fd]3 [FA]3 | %10
w: |||||
 BBB [Bd]c[DGB] | [FA]6 | FFF FFD | [FA][FA][FA] [FA]2 [DF] | [Fd][Fd][Ad] edB | AB[EGc] [DFd]3 |] %16
w: ||||||
V:2
 [D,A,D][D,A,D][D,A,D] [D,A,D][D,A,D][D,F,] | [D,D][D,D][D,D] [D,D]2 [D,A,] | %2
 [D,A,][D,A,][F,A,][K:treble] [G,B,G][G,B,G][G,DG] | [D,D][D,D][D,A,] [A,,A,]3 | %4
 [D,A,D][D,A,D][D,A,D] [D,A,D][D,A,D][D,F,] | [D,D][D,D][D,D] [D,D]2 [D,A,] | %6
 [D,A,][D,A,][F,A,][K:treble] [G,B,G][G,B,G][G,DG] | [A,CG][A,DG][K:bass]A,, D,3 | %8
 z GG [CG][DF][A,EG] | [D,D]D,D, D,2 D, | GGG z A[K:bass]G, | D,D,A, .D,3 | %12
 [D,A,D][D,A,D][D,A,D] [D,A,D][D,A,D][D,F,] | [D,D][D,D][D,D] [D,D]2 [D,A,] | %14
 [D,A,][D,A,][F,A,][K:treble] [G,B,G][G,B,G][G,DG] | [A,CG][A,DG][K:bass]A,, D,3 |] %16
V:3
 x6 | x6 | x3[K:treble] x3 | x6 | x6 | x6 | x3[K:treble] x3 | x2[K:bass] x4 | [A,C]3 .A,3 | x6 | %10
 [G,D]3 .[G,D]3[K:bass] | x6 | x6 | x6 | x3[K:treble] x3 | x2[K:bass] x4 |] %16
V:4
 x6 | x6 | x6 | x6 | x6 | x6 | x6 | x6 | x6 | z A,A, D2 D | x6 | DDD .D3 | x6 | x6 | x6 | x6 |] %16

